X:75
T:Down The Road Went Polly
R:Polka
M:4/4
L:1/8
K:G
D2|:G2G2 GAB2|A2G2 G2Bc|d2d2 d2g2|e2d2 d4|
|e2e2 d4|e2e2 d4|e2e2 d2B2|B2A2 A4|
|G2G2 GAB2|A2G2 G2Bc|d2d2 d2g2|e2e2 d4|
|e2e2 d4|e2e2 d4|G2G2 FG A2|1 G4 G2D2:|2 G4 G4|
|:G3E D3E|G2G2 GAB2|G2G2 GAB2|A2F2 D4|
|A2F2 D4|A2A2 ABc2|A2A2 ABc2|d2B2 G4|
|B3c d3d|c2B2 A2G2|F2D2 c2A2|F4 D4|
|E2E2 D4|E2E2 D4|G2G2 FGA2|1 G4G4:|2 G4G2 D2|
